X:200
T:Longford Tinker
Z: id:dc-reel-183
M:C
L:1/8
K:B Minor
dBBA B3c|dBB2 gefe|dBBA B2dB|ABde fgfe|!
dBB2 fBB2|dBB2 fefg|a2AF ABAF|ABde fgfe|]!
d2fd efge|defa g2fe|d2fd efge|faaf gefe|!
d2fd efge|defa g3a|bgaf gfed|faaf gfed|]!
faa2 faa2|faaf gfed|gbb2 gbb2|gbaf gfed|!
faa2 faa2|faaf g3a|bgaf gfed|faaf gfef|]!

